Newaita-dark/apps/64/kvantum.svg

<svg height="64" viewBox="0 0 64 64" width="64" xmlns="http://www.w3.org/2000/svg" xmlns:xlink="http://www.w3.org/1999/xlink"><linearGradient id="a" gradientUnits="userSpaceOnUse" x1="31.75304" x2="31.75304" y1="56.067872" y2="58.71396000006"><stop offset="0" stop-opacity=".27451"/><stop offset="1" stop-opacity="0"/></linearGradient><linearGradient id="b"><stop offset="0" stop-opacity=".313726"/><stop offset=".222222" stop-opacity=".27451"/><stop offset="1" stop-opacity="0"/></linearGradient><radialGradient id="c" cx="450.908936" cy="189.579361" gradientTransform="matrix(.00000035 -.156265 -.281277 -.0000002 106.24586 127.190665)" gradientUnits="userSpaceOnUse" r="21.166656" xlink:href="#b"/><radialGradient id="d" cx="450.908936" cy="189.579361" gradientTransform="matrix(-.00000035 .156265 .281277 .0000002 -42.409041 -15.054958)" gradientUnits="userSpaceOnUse" r="21.166656" xlink:href="#b"/><radialGradient id="e" cx="450.908936" cy="189.579361" gradientTransform="matrix(-.00000035 -.156265 .281277 -.0000002 -42.409041 127.190665)" gradientUnits="userSpaceOnUse" r="21.166656" xlink:href="#b"/><radialGradient id="f" cx="450.908936" cy="189.579361" gradientTransform="matrix(.00000035 .156265 -.281277 .0000002 106.245857 -15.054959)" gradientUnits="userSpaceOnUse" r="21.166656" xlink:href="#b"/><linearGradient id="g" gradientUnits="userSpaceOnUse" x1="31.753048" x2="31.753048" y1="5.79221000013" y2="56.067868"><stop offset="0" stop-color="#7986cb"/><stop offset="1" stop-color="#5c6bc0"/></linearGradient><linearGradient id="h" gradientUnits="userSpaceOnUse" x1="31.753048" x2="31.753048" y1="5.79221000013" y2="56.067868"><stop offset="0" stop-color="#4db6ac"/><stop offset="1" stop-color="#26a69a"/></linearGradient><linearGradient id="i" gradientUnits="userSpaceOnUse" x1="31.753048" x2="31.753048" y1="5.79221000013" y2="56.067868"><stop offset="0" stop-color="#ffb74d"/><stop offset="1" stop-color="#ffa726"/></linearGradient><linearGradient id="j" gradientUnits="userSpaceOnUse" x1="31.753056" x2="31.753056" y1="56.06789790428" y2="5.792224912"><stop offset="0" stop-color="#bdbdbd"/><stop offset="1" stop-color="#e0e0e0"/></linearGradient><path d="m8.902344 5.867188h45.703125c1.625 0 2.945312 1.320312 2.945312 2.949218v44.226563c0 1.628906-1.320312 2.949219-2.945312 2.949219h-45.703125c-1.628906 0-2.949219-1.320313-2.949219-2.949219v-44.226563c0-1.628906 1.320313-2.949218 2.949219-2.949218zm0 0" fill="#7986cb" fill-opacity=".716129"/><path d="m10.253906 56.066406h43.328125v2.648438h-43.328125zm0 0" fill="url(#a)"/><path d="m53.582031 56.066406h5.292969v-2.644531h-5.292969zm0 0" fill="url(#c)"/><path d="m10.253906 56.066406h-5.292968v2.648438h5.292968zm0 0" fill="url(#d)"/><path d="m10.253906 56.066406h-5.292968v-2.644531h5.292968zm0 0" fill="url(#e)"/><path d="m53.582031 56.066406h5.292969v2.648438h-5.292969zm0 0" fill="url(#f)"/><path d="m8.902344 5.867188c-1.632813 0-2.949219 1.316406-2.949219 2.949218v44.226563c0 1.632812 1.316406 2.949219 2.949219 2.949219h45.703125c1.632812 0 2.945312-1.316407 2.945312-2.949219v-44.226563c0-1.632812-1.3125-2.949218-2.945312-2.949218zm0 0" fill="url(#g)"/><path d="m47.542969 5.867188-41.589844 36.390624v10.785157c0 1.632812 1.316406 2.949219 2.949219 2.949219h45.703125c1.632812 0 2.945312-1.316407 2.945312-2.949219v-44.226563c0-1.632812-1.3125-2.949218-2.945312-2.949218zm0 0" fill="url(#h)"/><path d="m57.550781 16.996094-41.59375 38.996094h38.648438c1.632812 0 2.945312-1.316407 2.945312-2.949219zm0 0" fill="url(#i)"/><path d="m22.460938 13.027344c-1.101563.019531-1.980469.925781-1.964844 2.027344v14.335937c-.019532.15625-.019532.316406 0 .472656v11.652344c-.011719.71875.367187 1.386719.992187 1.746094.621094.363281 1.386719.363281 2.007813 0 .621094-.359375 1-1.027344.992187-1.746094v-11.195313l1.292969-1.578124 8.15625 16.3125c.328125.65625.992188 1.082031 1.730469 1.101562.734375.019531 1.421875-.367188 1.789062-1.003906l10.582031-18.523438c.367188-.621094.371094-1.390625.011719-2.011718-.359375-.625-1.027343-1.007813-1.75-1-.71875.007812-1.378906.398437-1.726562 1.03125l-8.734375 15.28125-7.289063-14.574219 7.394531-9.039063c.507813-.601562.613282-1.445312.269532-2.152344-.34375-.710937-1.070313-1.152343-1.855469-1.128906-.589844.015625-1.140625.292969-1.507813.753906l-8.363281 10.222657v-8.957031c.007813-.539063-.203125-1.0625-.585937-1.441407-.382813-.382812-.902344-.59375-1.441406-.585937zm0 0" fill="url(#j)"/><path d="m22.460938 13.027344c-1.101563.019531-1.980469.925781-1.964844 2.027344v.660156c-.015625-1.101563.863281-2.007813 1.964844-2.023438.539062-.007812 1.058593.203125 1.441406.585938.382812.378906.59375.898437.585937 1.4375v-.660156c.007813-.539063-.203125-1.0625-.585937-1.441407-.382813-.382812-.902344-.59375-1.441406-.585937zm11.898437.007812c-.589844.015625-1.140625.292969-1.507813.753906l-8.363281 10.222657v.664062l8.363281-10.222656c.367188-.460937.917969-.738281 1.507813-.753906.996094-.027344 1.859375.683593 2.023437 1.667969.101563-.589844-.070312-1.191407-.460937-1.644532s-.964844-.703125-1.5625-.6875zm11.96875 10.582032c-.730469-.003907-1.402344.390624-1.753906 1.03125l-8.734375 15.28125-6.96875-13.933594-.320313.390625.207031.410156.113282-.136719 6.96875 13.933594 8.734375-15.285156c.351562-.636719 1.023437-1.03125 1.753906-1.027344.972656.003906 1.796875.707031 1.957031 1.667969.101563-.578125-.0625-1.171875-.4375-1.621094-.378906-.449219-.933594-.707031-1.519531-.710937zm-25.832031 5.773437c-.019532.15625-.019532.316406 0 .472656zm0 0" fill="#fff" fill-opacity=".716129"/><path d="m36.234375 15.789062c-.074219.164063-.171875.320313-.289063.460938l-7.394531 9.035156.515625 1.027344 6.878906-8.410156c.496094-.589844.605469-1.410156.289063-2.113282zm11.902344 10.585938c-.027344.0625-.0625.125-.097657.183594l-10.582031 18.523437c-.367187.640625-1.054687 1.027344-1.789062 1.003907-.738281-.019532-1.402344-.441407-1.730469-1.101563l-8.15625-16.3125-1.292969 1.578125v1.65625l1.292969-1.578125 8.15625 16.308594c.328125.660156.992188 1.085937 1.730469 1.105469.734375.019531 1.421875-.367188 1.789062-1.007813l10.582031-18.519531c.332032-.5625.367188-1.25.097657-1.839844zm-27.640625 4.597656c-.019532.160156-.019532.320313 0 .476563zm0 10.472656v1.652344c-.011719.71875.367187 1.390625.992187 1.75.621094.363282 1.386719.363282 2.007813 0 .621094-.359375 1-1.03125.992187-1.75v-1.652344c.007813.71875-.371093 1.386719-.992187 1.75-.621094.359376-1.386719.359376-2.007813 0-.625-.363281-1.003906-1.03125-.992187-1.75zm0 0" fill-opacity=".235294"/><path d="m679.069046 393.860047c-33.303908.590495-59.876175 27.989454-59.403779 61.293362v433.4232c-.590495 4.723959-.590495 9.566016 0 14.289975v352.289211c-.354297 21.73021 11.101303 41.925133 29.997137 52.790237 18.777735 10.983204 41.925132 10.983204 60.702868 0 18.777735-10.865104 30.233335-31.060027 29.997137-52.790237v-338.471632l39.090757-47.711982 246.590638 493.181276c9.920313 19.840626 29.997137 32.713413 52.317841 33.303908 22.202606.590495 42.988023-11.101303 54.089326-30.351434l319.930095-560.02529c11.101303-18.777735 11.219402-42.043231.354297-60.820966-10.865105-18.895835-31.060028-30.469533-52.908336-30.233335-21.73021.236198-41.688935 12.046094-52.199743 31.178126l-264.069284 462.00315-220.372668-440.627237 223.56134-273.281004c15.352865-18.187241 18.541537-43.696617 8.148828-65.07253-10.392709-21.494011-32.359116-34.839194-56.097008-34.1306-17.832944.472396-34.484898 8.857422-45.5862 22.7931l-252.849883 309.06499v-270.800926c.236198-16.297657-6.141146-32.122918-17.714845-43.578518-11.573698-11.573698-27.280861-17.951042-43.578518-17.714844zm0 0" fill="none" stroke="#212121" stroke-linecap="round" stroke-linejoin="round" stroke-width="11.338583" transform="scale(.0330761)"/><path d="m8.902344 5.867188c-1.632813 0-2.949219 1.316406-2.949219 2.949218v.585938c0-1.632813 1.316406-2.949219 2.949219-2.949219h45.703125c1.632812 0 2.945312 1.316406 2.945312 2.949219v-.585938c0-1.632812-1.3125-2.949218-2.945312-2.949218zm0 0" fill="#fff" fill-opacity=".392157"/><path d="m8.902344 56.066406c-1.632813 0-2.949219-1.3125-2.949219-2.945312v-.828125c0 1.632812 1.316406 2.945312 2.949219 2.945312h45.703125c1.632812 0 2.945312-1.3125 2.945312-2.945312v.828125c0 1.632812-1.3125 2.945312-2.945312 2.945312zm0 0" fill-opacity=".235294"/><path d="m68.805929-168.660675h370.402129c11.686384 0 21.15423 9.467846 21.15423 21.15423v359.840637c0 11.686384-9.467846 21.154229-21.15423 21.154229h-370.402129c-11.717631 0-21.185477-9.467845-21.185477-21.154229v-359.840637c0-11.686384 9.467846-21.15423 21.185477-21.15423zm0 0" fill="none" stroke="#212121" stroke-linecap="round" stroke-linejoin="round" stroke-width="3" transform="matrix(.125012 0 0 .125012 0 26.877566)"/></svg>

<?xml version="1.0" encoding="UTF-8"?>
<svg xmlns="http://www.w3.org/2000/svg" xmlns:xlink="http://www.w3.org/1999/xlink" width="64px" height="64px" viewBox="0 0 64 64" version="1.1">
<defs>
<linearGradient id="linear0" gradientUnits="userSpaceOnUse" x1="254" y1="233.5" x2="254" y2="254.666672" gradientTransform="matrix(0.125012,0,0,0.125012,-0.00000763012,26.87757)">
<stop offset="0" style="stop-color:rgb(0%,0%,0%);stop-opacity:0.27451;"/>
<stop offset="1" style="stop-color:rgb(0%,0%,0%);stop-opacity:0;"/>
</linearGradient>
<radialGradient id="radial0" gradientUnits="userSpaceOnUse" cx="450.908936" cy="189.579361" fx="450.908936" fy="189.579361" r="21.166656" gradientTransform="matrix(0.000000348341,-0.156265,-0.281277,-0.000000203077,106.24586,127.190665)">
<stop offset="0" style="stop-color:rgb(0%,0%,0%);stop-opacity:0.313726;"/>
<stop offset="0.222222" style="stop-color:rgb(0%,0%,0%);stop-opacity:0.27451;"/>
<stop offset="1" style="stop-color:rgb(0%,0%,0%);stop-opacity:0;"/>
</radialGradient>
<radialGradient id="radial1" gradientUnits="userSpaceOnUse" cx="450.908936" cy="189.579361" fx="450.908936" fy="189.579361" r="21.166656" gradientTransform="matrix(-0.000000348341,0.156265,0.281277,0.000000203077,-42.409041,-15.054958)">
<stop offset="0" style="stop-color:rgb(0%,0%,0%);stop-opacity:0.313726;"/>
<stop offset="0.222222" style="stop-color:rgb(0%,0%,0%);stop-opacity:0.27451;"/>
<stop offset="1" style="stop-color:rgb(0%,0%,0%);stop-opacity:0;"/>
</radialGradient>
<radialGradient id="radial2" gradientUnits="userSpaceOnUse" cx="450.908936" cy="189.579361" fx="450.908936" fy="189.579361" r="21.166656" gradientTransform="matrix(-0.000000348341,-0.156265,0.281277,-0.000000203077,-42.409041,127.190665)">
<stop offset="0" style="stop-color:rgb(0%,0%,0%);stop-opacity:0.313726;"/>
<stop offset="0.222222" style="stop-color:rgb(0%,0%,0%);stop-opacity:0.27451;"/>
<stop offset="1" style="stop-color:rgb(0%,0%,0%);stop-opacity:0;"/>
</radialGradient>
<radialGradient id="radial3" gradientUnits="userSpaceOnUse" cx="450.908936" cy="189.579361" fx="450.908936" fy="189.579361" r="21.166656" gradientTransform="matrix(0.000000348341,0.156265,-0.281277,0.000000203077,106.245857,-15.054959)">
<stop offset="0" style="stop-color:rgb(0%,0%,0%);stop-opacity:0.313726;"/>
<stop offset="0.222222" style="stop-color:rgb(0%,0%,0%);stop-opacity:0.27451;"/>
<stop offset="1" style="stop-color:rgb(0%,0%,0%);stop-opacity:0;"/>
</radialGradient>
<linearGradient id="linear1" gradientUnits="userSpaceOnUse" x1="254" y1="-168.666656" x2="254" y2="233.5" gradientTransform="matrix(0.125012,0,0,0.125012,0,26.877566)">
<stop offset="0" style="stop-color:rgb(47.450981%,52.549022%,79.607844%);stop-opacity:1;"/>
<stop offset="1" style="stop-color:rgb(36.078432%,41.960785%,75.294119%);stop-opacity:1;"/>
</linearGradient>
<linearGradient id="linear2" gradientUnits="userSpaceOnUse" x1="254" y1="-168.666656" x2="254" y2="233.5" gradientTransform="matrix(0.125012,0,0,0.125012,0,26.877566)">
<stop offset="0" style="stop-color:rgb(30.19608%,71.372551%,67.450982%);stop-opacity:1;"/>
<stop offset="1" style="stop-color:rgb(14.901961%,65.098041%,60.392159%);stop-opacity:1;"/>
</linearGradient>
<linearGradient id="linear3" gradientUnits="userSpaceOnUse" x1="254" y1="-168.666656" x2="254" y2="233.5" gradientTransform="matrix(0.125012,0,0,0.125012,0,26.877566)">
<stop offset="0" style="stop-color:rgb(100%,71.764708%,30.19608%);stop-opacity:1;"/>
<stop offset="1" style="stop-color:rgb(100%,65.490198%,14.901961%);stop-opacity:1;"/>
</linearGradient>
<linearGradient id="linear4" gradientUnits="userSpaceOnUse" x1="960" y1="1695.118164" x2="960" y2="175.118134" gradientTransform="matrix(0.0330761,0,0,0.0330761,0,0)">
<stop offset="0" style="stop-color:rgb(74.117649%,74.117649%,74.117649%);stop-opacity:1;"/>
<stop offset="1" style="stop-color:rgb(87.843138%,87.843138%,87.843138%);stop-opacity:1;"/>
</linearGradient>
</defs>
<g id="surface1">
<path style=" stroke:none;fill-rule:nonzero;fill:rgb(47.450981%,52.549022%,79.607844%);fill-opacity:0.716129;" d="M 8.902344 5.867188 L 54.605469 5.867188 C 56.230469 5.867188 57.550781 7.1875 57.550781 8.816406 L 57.550781 53.042969 C 57.550781 54.671875 56.230469 55.992188 54.605469 55.992188 L 8.902344 55.992188 C 7.273438 55.992188 5.953125 54.671875 5.953125 53.042969 L 5.953125 8.816406 C 5.953125 7.1875 7.273438 5.867188 8.902344 5.867188 Z M 8.902344 5.867188 "/>
<path style=" stroke:none;fill-rule:nonzero;fill:url(#linear0);" d="M 10.253906 56.066406 L 53.582031 56.066406 L 53.582031 58.714844 L 10.253906 58.714844 Z M 10.253906 56.066406 "/>
<path style=" stroke:none;fill-rule:nonzero;fill:url(#radial0);" d="M 53.582031 56.066406 L 58.875 56.066406 L 58.875 53.421875 L 53.582031 53.421875 Z M 53.582031 56.066406 "/>
<path style=" stroke:none;fill-rule:nonzero;fill:url(#radial1);" d="M 10.253906 56.066406 L 4.960938 56.066406 L 4.960938 58.714844 L 10.253906 58.714844 Z M 10.253906 56.066406 "/>
<path style=" stroke:none;fill-rule:nonzero;fill:url(#radial2);" d="M 10.253906 56.066406 L 4.960938 56.066406 L 4.960938 53.421875 L 10.253906 53.421875 Z M 10.253906 56.066406 "/>
<path style=" stroke:none;fill-rule:nonzero;fill:url(#radial3);" d="M 53.582031 56.066406 L 58.875 56.066406 L 58.875 58.714844 L 53.582031 58.714844 Z M 53.582031 56.066406 "/>
<path style=" stroke:none;fill-rule:nonzero;fill:url(#linear1);" d="M 8.902344 5.867188 C 7.269531 5.867188 5.953125 7.183594 5.953125 8.816406 L 5.953125 53.042969 C 5.953125 54.675781 7.269531 55.992188 8.902344 55.992188 L 54.605469 55.992188 C 56.238281 55.992188 57.550781 54.675781 57.550781 53.042969 L 57.550781 8.816406 C 57.550781 7.183594 56.238281 5.867188 54.605469 5.867188 Z M 8.902344 5.867188 "/>
<path style=" stroke:none;fill-rule:nonzero;fill:url(#linear2);" d="M 47.542969 5.867188 L 5.953125 42.257812 L 5.953125 53.042969 C 5.953125 54.675781 7.269531 55.992188 8.902344 55.992188 L 54.605469 55.992188 C 56.238281 55.992188 57.550781 54.675781 57.550781 53.042969 L 57.550781 8.816406 C 57.550781 7.183594 56.238281 5.867188 54.605469 5.867188 Z M 47.542969 5.867188 "/>
<path style=" stroke:none;fill-rule:nonzero;fill:url(#linear3);" d="M 57.550781 16.996094 L 15.957031 55.992188 L 54.605469 55.992188 C 56.238281 55.992188 57.550781 54.675781 57.550781 53.042969 Z M 57.550781 16.996094 "/>
<path style=" stroke:none;fill-rule:nonzero;fill:url(#linear4);" d="M 22.460938 13.027344 C 21.359375 13.046875 20.480469 13.953125 20.496094 15.054688 L 20.496094 29.390625 C 20.476562 29.546875 20.476562 29.707031 20.496094 29.863281 L 20.496094 41.515625 C 20.484375 42.234375 20.863281 42.902344 21.488281 43.261719 C 22.109375 43.625 22.875 43.625 23.496094 43.261719 C 24.117188 42.902344 24.496094 42.234375 24.488281 41.515625 L 24.488281 30.320312 L 25.78125 28.742188 L 33.9375 45.054688 C 34.265625 45.710938 34.929688 46.136719 35.667969 46.15625 C 36.402344 46.175781 37.089844 45.789062 37.457031 45.152344 L 48.039062 26.628906 C 48.40625 26.007812 48.410156 25.238281 48.050781 24.617188 C 47.691406 23.992188 47.023438 23.609375 46.300781 23.617188 C 45.582031 23.625 44.921875 24.015625 44.574219 24.648438 L 35.839844 39.929688 L 28.550781 25.355469 L 35.945312 16.316406 C 36.453125 15.714844 36.558594 14.871094 36.214844 14.164062 C 35.871094 13.453125 35.144531 13.011719 34.359375 13.035156 C 33.769531 13.050781 33.21875 13.328125 32.851562 13.789062 L 24.488281 24.011719 L 24.488281 15.054688 C 24.496094 14.515625 24.285156 13.992188 23.902344 13.613281 C 23.519531 13.230469 23 13.019531 22.460938 13.027344 Z M 22.460938 13.027344 "/>
<path style=" stroke:none;fill-rule:nonzero;fill:rgb(100%,100%,100%);fill-opacity:0.716129;" d="M 22.460938 13.027344 C 21.359375 13.046875 20.480469 13.953125 20.496094 15.054688 L 20.496094 15.714844 C 20.480469 14.613281 21.359375 13.707031 22.460938 13.691406 C 23 13.683594 23.519531 13.894531 23.902344 14.277344 C 24.285156 14.65625 24.496094 15.175781 24.488281 15.714844 L 24.488281 15.054688 C 24.496094 14.515625 24.285156 13.992188 23.902344 13.613281 C 23.519531 13.230469 23 13.019531 22.460938 13.027344 Z M 34.359375 13.035156 C 33.769531 13.050781 33.21875 13.328125 32.851562 13.789062 L 24.488281 24.011719 L 24.488281 24.675781 L 32.851562 14.453125 C 33.21875 13.992188 33.769531 13.714844 34.359375 13.699219 C 35.355469 13.671875 36.21875 14.382812 36.382812 15.367188 C 36.484375 14.777344 36.3125 14.175781 35.921875 13.722656 C 35.53125 13.269531 34.957031 13.019531 34.359375 13.035156 Z M 46.328125 23.617188 C 45.597656 23.613281 44.925781 24.007812 44.574219 24.648438 L 35.839844 39.929688 L 28.871094 25.996094 L 28.550781 26.386719 L 28.757812 26.796875 L 28.871094 26.660156 L 35.839844 40.59375 L 44.574219 25.308594 C 44.925781 24.671875 45.597656 24.277344 46.328125 24.28125 C 47.300781 24.285156 48.125 24.988281 48.285156 25.949219 C 48.386719 25.371094 48.222656 24.777344 47.847656 24.328125 C 47.46875 23.878906 46.914062 23.621094 46.328125 23.617188 Z M 20.496094 29.390625 C 20.476562 29.546875 20.476562 29.707031 20.496094 29.863281 Z M 20.496094 29.390625 "/>
<path style=" stroke:none;fill-rule:nonzero;fill:rgb(0%,0%,0%);fill-opacity:0.235294;" d="M 36.234375 15.789062 C 36.160156 15.953125 36.0625 16.109375 35.945312 16.25 L 28.550781 25.285156 L 29.066406 26.3125 L 35.945312 17.902344 C 36.441406 17.3125 36.550781 16.492188 36.234375 15.789062 Z M 48.136719 26.375 C 48.109375 26.4375 48.074219 26.5 48.039062 26.558594 L 37.457031 45.082031 C 37.089844 45.722656 36.402344 46.109375 35.667969 46.085938 C 34.929688 46.066406 34.265625 45.644531 33.9375 44.984375 L 25.78125 28.671875 L 24.488281 30.25 L 24.488281 31.90625 L 25.78125 30.328125 L 33.9375 46.636719 C 34.265625 47.296875 34.929688 47.722656 35.667969 47.742188 C 36.402344 47.761719 37.089844 47.375 37.457031 46.734375 L 48.039062 28.214844 C 48.371094 27.652344 48.40625 26.964844 48.136719 26.375 Z M 20.496094 30.972656 C 20.476562 31.132812 20.476562 31.292969 20.496094 31.449219 Z M 20.496094 41.445312 L 20.496094 43.097656 C 20.484375 43.816406 20.863281 44.488281 21.488281 44.847656 C 22.109375 45.210938 22.875 45.210938 23.496094 44.847656 C 24.117188 44.488281 24.496094 43.816406 24.488281 43.097656 L 24.488281 41.445312 C 24.496094 42.164062 24.117188 42.832031 23.496094 43.195312 C 22.875 43.554688 22.109375 43.554688 21.488281 43.195312 C 20.863281 42.832031 20.484375 42.164062 20.496094 41.445312 Z M 20.496094 41.445312 "/>
<path style="fill:none;stroke-width:11.338583;stroke-linecap:round;stroke-linejoin:round;stroke:rgb(12.941177%,12.941177%,12.941177%);stroke-opacity:1;stroke-miterlimit:4;" d="M 679.069046 393.860047 C 645.765138 394.450542 619.192871 421.849501 619.665267 455.153409 L 619.665267 888.576609 C 619.074772 893.300568 619.074772 898.142625 619.665267 902.866584 L 619.665267 1255.155795 C 619.31097 1276.886005 630.76657 1297.080928 649.662404 1307.946032 C 668.440139 1318.929236 691.587536 1318.929236 710.365272 1307.946032 C 729.143007 1297.080928 740.598607 1276.886005 740.362409 1255.155795 L 740.362409 916.684163 L 779.453166 868.972181 L 1026.043804 1362.153457 C 1035.964117 1381.994083 1056.040941 1394.86687 1078.361645 1395.457365 C 1100.564251 1396.04786 1121.349668 1384.356062 1132.450971 1365.105931 L 1452.381066 805.080641 C 1463.482369 786.302906 1463.600468 763.03741 1452.735363 744.259675 C 1441.870258 725.36384 1421.675335 713.790142 1399.827027 714.02634 C 1378.096817 714.262538 1358.138092 726.072434 1347.627284 745.204466 L 1083.558 1207.207616 L 863.185332 766.580379 L 1086.746672 493.299375 C 1102.099537 475.112134 1105.288209 449.602758 1094.8955 428.226845 C 1084.502791 406.732834 1062.536384 393.387651 1038.798492 394.096245 C 1020.965548 394.568641 1004.313594 402.953667 993.212292 416.889345 L 740.362409 725.954335 L 740.362409 455.153409 C 740.598607 438.855752 734.221263 423.030491 722.647564 411.574891 C 711.073866 400.001193 695.366703 393.623849 679.069046 393.860047 Z M 679.069046 393.860047 " transform="matrix(0.0330761,0,0,0.0330761,0,0)"/>
<path style=" stroke:none;fill-rule:nonzero;fill:rgb(100%,100%,100%);fill-opacity:0.392157;" d="M 8.902344 5.867188 C 7.269531 5.867188 5.953125 7.183594 5.953125 8.816406 L 5.953125 9.402344 C 5.953125 7.769531 7.269531 6.453125 8.902344 6.453125 L 54.605469 6.453125 C 56.238281 6.453125 57.550781 7.769531 57.550781 9.402344 L 57.550781 8.816406 C 57.550781 7.183594 56.238281 5.867188 54.605469 5.867188 Z M 8.902344 5.867188 "/>
<path style=" stroke:none;fill-rule:nonzero;fill:rgb(0%,0%,0%);fill-opacity:0.235294;" d="M 8.902344 56.066406 C 7.269531 56.066406 5.953125 54.753906 5.953125 53.121094 L 5.953125 52.292969 C 5.953125 53.925781 7.269531 55.238281 8.902344 55.238281 L 54.605469 55.238281 C 56.238281 55.238281 57.550781 53.925781 57.550781 52.292969 L 57.550781 53.121094 C 57.550781 54.753906 56.238281 56.066406 54.605469 56.066406 Z M 8.902344 56.066406 "/>
<path style="fill:none;stroke-width:3;stroke-linecap:round;stroke-linejoin:round;stroke:rgb(12.941177%,12.941177%,12.941177%);stroke-opacity:1;stroke-miterlimit:4;" d="M 68.805929 -168.660675 L 439.208058 -168.660675 C 450.894442 -168.660675 460.362288 -159.192829 460.362288 -147.506445 L 460.362288 212.334192 C 460.362288 224.020576 450.894442 233.488421 439.208058 233.488421 L 68.805929 233.488421 C 57.088298 233.488421 47.620452 224.020576 47.620452 212.334192 L 47.620452 -147.506445 C 47.620452 -159.192829 57.088298 -168.660675 68.805929 -168.660675 Z M 68.805929 -168.660675 " transform="matrix(0.125012,0,0,0.125012,0,26.877566)"/>
</g>
</svg>
